Arcticons/scalable/apps/element.svg

<svg id="Layer_2" data-name="Layer 2" viewBox="0 0 48 48" xmlns="http://www.w3.org/2000/svg">
 <defs>
  <style>.cls-1{fill:none;stroke:#fff;stroke-linecap:round;stroke-linejoin:round;fill-rule:evenodd;}</style>
 </defs>
 <path class="cls-1" d="m18.28 6a2.47 2.47 0 0 1 2.44-2.5 16.4 16.4 0 0 1 16.4 16.4 2.46 2.46 0 0 1-4.92 0 11.44 11.44 0 0 0-11.44-11.44 2.47 2.47 0 0 1-2.48-2.46z"/>
 <path class="cls-1" d="m29.72 42a2.46 2.46 0 0 1-2.46 2.46 16.4 16.4 0 0 1-16.4-16.4 2.46 2.46 0 1 1 4.92 0 11.44 11.44 0 0 0 11.44 11.48 2.47 2.47 0 0 1 2.5 2.46z"/>
 <path class="cls-1" d="m6 29.72a2.47 2.47 0 0 1-2.5-2.44 16.4 16.4 0 0 1 16.4-16.4 2.46 2.46 0 1 1 0 4.92 11.44 11.44 0 0 0-11.44 11.44 2.47 2.47 0 0 1-2.46 2.48z"/>
 <path class="cls-1" d="m42 18.28a2.46 2.46 0 0 1 2.46 2.46 16.4 16.4 0 0 1-16.4 16.4 2.46 2.46 0 0 1 0-4.92 11.44 11.44 0 0 0 11.48-11.44 2.47 2.47 0 0 1 2.46-2.5z"/>
</svg>

<svg id="Layer_2" data-name="Layer 2" xmlns="http://www.w3.org/2000/svg" viewBox="0 0 48 48"><defs><style>.cls-1{fill:none;stroke:#fff;stroke-linecap:round;stroke-linejoin:round;fill-rule:evenodd;}</style></defs><path class="cls-1" d="M18.28,6A2.47,2.47,0,0,1,20.72,3.5a16.4,16.4,0,0,1,16.4,16.4h0a2.46,2.46,0,0,1-4.92,0A11.44,11.44,0,0,0,20.76,8.46,2.47,2.47,0,0,1,18.28,6Z"/><path class="cls-1" d="M29.72,42a2.46,2.46,0,0,1-2.46,2.46,16.4,16.4,0,0,1-16.4-16.4,2.46,2.46,0,1,1,4.92,0h0A11.44,11.44,0,0,0,27.22,39.54,2.47,2.47,0,0,1,29.72,42Z"/><path class="cls-1" d="M6,29.72A2.47,2.47,0,0,1,3.5,27.28a16.4,16.4,0,0,1,16.4-16.4,2.46,2.46,0,1,1,0,4.92h0A11.44,11.44,0,0,0,8.46,27.24,2.47,2.47,0,0,1,6,29.72Z"/><path class="cls-1" d="M42,18.28a2.46,2.46,0,0,1,2.46,2.46,16.4,16.4,0,0,1-16.4,16.4,2.46,2.46,0,0,1,0-4.92A11.44,11.44,0,0,0,39.54,20.78,2.47,2.47,0,0,1,42,18.28Z"/></svg>
